X:1
T:Title
%%score { ( 1 4 ) | ( 2 3 ) }
L:1/8
Q:1/4=75
M:6/8
K:Ab
V:1 treble nm="Grand Piano"
V:4 treble 
V:2 bass 
V:3 bass 
V:1
 [CE][CA][CA] [DA] [DG]2 | EBB [CA]3 | ABc [Fe] [Fd]2 | cBA B3 | E[CA][CA] [DA] [DG]2 | EBB [CA]3 | %6
w: Wm.~J.~Kirkpatrick * * * *||||||
 ABc [Fe] [Fd]2 | cAB A3 | .[Ec]6 | BAF [CE] [CA]2 | .[EB]6 | [Ec]6 | .[Ec]6 | BAF [A,CE] [CEA]2 | %14
w: ||||||||
 .[EG]6 | [CEA]6 |] %16
w: ||
V:2
 [A,,A,][A,,E,][A,,E,] [B,,E,] [B,,E,]2 | [E,G,D][E,G,D][E,G,D] [A,,A,]3 | %2
 [A,CE][A,DE][A,C_G][K:bass] [D,A,] [D,A,]2 | [A,E][G,B,E][F,B,=D] [E,G,_D]3 | .C3 z3 | %5
 [E,G,D][E,G,D][E,G,D] [A,,A,]3 | [A,CE][A,DE][A,C_G][K:bass] [D,A,] [D,A,]2 | %7
 [E,A,E][E,A,C][E,G,D] [E,A,C]3 | [A,,A,]A,,A,, A,,[A,,E,]C | %9
 [D,F,D][D,F,D][D,A,D] [A,,A,] [A,,A,]2 | [E,G,]E,E, E,CD | [A,,A,]C,E, .A,3 | %12
 [A,,A,]A,,A,, A,,[A,,E,]C | [D,F,D][D,F,D][D,A,D] A,, A,,2 | E,E,E, z CE, | A,,6 |] %16
V:3
 x6 | x6 | x3[K:bass] x3 | x6 | A,-[A,,E,A,][A,,E,] [B,,E,] [B,,E,]2 | x6 | x3[K:bass] x3 | x6 | %8
 x6 | x6 | x6 | x6 | x6 | x6 | z3 .E,3 | x6 |] %16
V:4
 x6 | x6 | x6 | x6 | x6 | x6 | x6 | x6 | z A,A, A,[DB]A | x6 | z G,G, G,AB | z A,A, z3 | %12
 z A,A, A,[DB]A | x6 | B,B,B, B,[EA][DEB] | x6 |] %16

